X:1
T:Title
%%score { ( 1 3 4 ) | ( 2 5 6 ) }
L:1/8
Q:1/4=120
M:6/4
K:F
V:1 treble nm="Grand Piano"
V:3 treble 
V:4 treble 
V:2 bass 
V:5 bass 
V:6 bass 
V:1
 [DF]2 [DF]2 | A6 z6 | [^CG]4 [DF]2- [DF]2 [DF]2 [FA]2 | c6 z6 | [FA]6 z2 [FA]2 [FA]2 | %5
 [^Fd]6 [Fc]2 [FB]2 [FA]2 | [^Fc]4 [GB]2- [GB]2 [DG]2 [GB]2 | [FB]2 [FA]2 [DF]2- [DF]2 [DG]4 | %8
[M:4/4] [EA]6 z2 |[K:D][M:2/4] [EA]2 [GA]2 |[M:6/4] .[FA]6 d2 [Gc]2 [Ae]2 | %11
 [Ad]4 [FA]2- [FA]2 [=F^G]2 [^FA]2 | [Gc]6 [FB]2 [EA]2 [DG]2 | [CF]6- [CF]3/2 z/ [DF]2 [DF]2 | %14
 [DG]6 [FA]2 [DB]2 [Fc]2 | [Fe]4 [Fd]2- [Fd]2 [=Fc]2 [FB]2 | %16
 [FA]2 D2 [CF]2- [CF]3- [CF]/ z/ [CE]2 |[M:4/4] D8 |[M:8/4] [B,D]8 [A,D]8 |] %19
V:2
 [D,A,]2 [D,A,]2 | [A,,A,]4 [A,,E,]2- [A,,E,]2 [A,,A,]2 [A,,G,]2 | %2
 [D,B,]4 [D,A,]2- [D,A,]2 [D,A,]2 [D,F,]2 | [C,G,]4 C2 D2 [C,C]2 [C,C]2 | %4
 [F,C]6 z2 [_E,C]2 [E,C]2 | z4 A,2- A,2 z2 z2 | [G,_E]4 [G,D]2- [G,D]2 [F,B,]2 [E,C]2 | %7
 [F,C]2 [F,C]2 [B,D]2- [B,D]2 [B,D]4 |[M:4/4] [A,^C]6 z2 |[K:D][M:2/4] [A,C]2 [A,C]2 | %10
[M:6/4] [D,D]4 [F,D]2- [F,D]2 [A,E]2 [G,C]2 | [F,D]4 [D,D]2- [D,D]2 [D,B,]2 [D,B,]2 | %12
 [E,E]4 [E,D]2- [E,D]2 [E,C]2 [E,B,]2 | [F,^A,]6- [F,A,]3/2 z/ [D,=A,]2 [=C,A,]2 | %14
 z4 D2- D2 z2 z2 | [B,,C]4 B,2 A,2 [^G,D]2 [G,D]2 | [A,D]2 [F,A,]2 [A,,A,]2- [A,,A,]2 [A,,G,]4 | %17
[M:4/4] [D,F,]8 |[M:8/4] [G,,G,]8 [D,F,]8 |] %19
V:3
 x4 | .^C6 G2 [CF]2 [CE]2 | x12 | .E6 B2 [EA]2 [EG]2 | x12 | x12 | x12 | x12 |[M:4/4] x8 | %9
[K:D][M:2/4] x4 |[M:6/4] z4 A2- A2 z2 z2 | x12 | x12 | x12 | x12 | x12 | x12 |[M:4/4] x8 | %18
[M:8/4] x16 |] %19
V:4
 x4 | z4 ^C2- C2 z2 z2 | x12 | z4 E2- E2 z2 z2 | x12 | x12 | x12 | x12 |[M:4/4] x8 | %9
[K:D][M:2/4] x4 |[M:6/4] x12 | x12 | x12 | x12 | x12 | x12 | x12 |[M:4/4] x8 |[M:8/4] x16 |] %19
V:5
 x4 | x12 | x12 | z4 C,2- C,2 z2 z2 | x12 | .C6 D,2 [D,D]2 [D,D]2 | x12 | x12 |[M:4/4] x8 | %9
[K:D][M:2/4] x4 |[M:6/4] x12 | x12 | x12 | x12 | .G,6 D,2 [G,B,]2 [F,^A,]2 | x12 | x12 | %17
[M:4/4] x8 |[M:8/4] x16 |] %19
V:6
 x4 | x12 | x12 | x12 | x12 | D,6 z6 | x12 | x12 |[M:4/4] x8 |[K:D][M:2/4] x4 |[M:6/4] x12 | x12 | %12
 x12 | x12 | B,,6 z6 | x12 | x12 |[M:4/4] x8 |[M:8/4] x16 |] %19

